findly-builder/apps/searchassist/src/assets/icons/pagination/previous-left.svg

<svg width="16" height="16" viewBox="0 0 16 16" fill="none" xmlns="http://www.w3.org/2000/svg">
<path fill-rule="evenodd" clip-rule="evenodd" d="M5.50042 8.01476C5.31154 7.82536 5.30042 7.5252 5.46708 7.32278L5.50042 7.28602L9.77264 2.80132C9.97332 2.60008 10.2987 2.60008 10.4994 2.80132C10.6883 2.99072 10.6994 3.29087 10.5327 3.4933L10.4994 3.53006L6.59063 7.65039L10.4994 11.7707C10.6883 11.9601 10.6994 12.2603 10.5327 12.4627L10.4994 12.4995C10.3105 12.6889 10.0112 12.7 9.8093 12.5329L9.77264 12.4995L5.50042 8.01476Z" fill="#202124"/>
</svg>

<svg width="16" height="16" fill="none" xmlns="http://www.w3.org/2000/svg"><path fill-rule="evenodd" clip-rule="evenodd" d="M5.5 8.015a.516.516 0 0 1-.033-.692l.033-.037 4.273-4.485a.513.513 0 0 1 .726 0c.19.19.2.49.034.692l-.034.037-3.908 4.12 3.908 4.12c.19.19.2.49.034.693l-.034.037a.513.513 0 0 1-.69.033l-.036-.034L5.5 8.015Z" fill="#202124"/></svg>
